X:860
T:Skidoo
M:C|
L:1/8
C:Stephen Cooney
R:reel
D:Sharon Shannon: Sharon Shannon
Z:Devin McCabe
K:A
!F~C3 A2Bc | A~F3 cFBA | GeBG E2CB, | CGFE FCGC |
!A~F3 cFBc | Acfg agfe | eBef ~g3b | gfec BecB |
!A~F3 cFBc | AcBc AcBA | GeBG E2CB, | CGFE FCGC |
!A~F3 cFBc | Acfg agfe | eBef ~g3b | gfec Befg |:
!a~f3 afcf | afcf dfed | cFAB cFAB | cFAB c^deg |
!~f3e fc'c'b | afgf fBBc | dBFB cAFA |1 BEGE CFfg :|2 BEGE CFAG ||
